COLOR/action 16/16/x-office-calendar.svg

<svg height="16" width="16" xmlns="http://www.w3.org/2000/svg"><g stroke-width="1.066666"><path d="m11.871388.00000645c3.743577 0 4.146385.32958922 4.128033 3.54486265v4.4551342 4.4551237c.01831 3.215284-.384456 3.544873-4.128033 3.544873h-7.7433441c-3.74358849 0-4.1280439-.329547-4.1280439-3.544873v-4.4551237-4.4551342c0-3.2153161.38446618-3.54486265 4.1280439-3.54486265z" fill="#2b898f"/><path d="m0 6v3h1v-3zm15 0v3h1v-3z" fill="#fff"/><path d="m5.0842715 4.1208262c-.2286292 0-.4425685.0288-.6394487.08544-.1968911.05664-.373395.1265599-.5321721.2083305-.1587772.081813-.2958534.17024-.4101734.2645866-.1143199.088107-.199465.1621013-.2566195.2250026l.4375175.6229117c.044479-.03776.1067274-.0912.1893091-.1604159.082604-.07552.1843228-.1433493.3049969-.2062506.1206632-.069227.2577503-.1288426.4101733-.1791679.1524231-.050347.3206452-.07712.5048279-.07712.1524231 0 .295735.022613.4291064.066667.139715.03776.2601736.1014399.3617962.1895785.1015583.088107.1805317.1970666.2376864.3291626.063541.1320959.096711.2925545.096711.4812585 0 .1761279-.035325.3427411-.1052192.4999998-.0635409.1572583-.152821.3115302-.267141.4624955-.1079659.1446719-.2346602.2927892-.3807291.4437545-.0510485.0529066-.1041429.1066879-.157754.1604159-.0929418.09312-.1896753.1876692-.2902748.2833279-.1905368.1887039-.3836691.3841385-.5805494.5854184-.1968801.2012906-.3755057.4131305-.534283.6395838-.1587771.2264532-.2896284.4691838-.3912402.7270818-.095312.2516156-.1430319.5251946-.1430319.8208316v.104214c0 .03776.00431.07467.010769.112501h4.0007684v-.743755h-3.0394895c0-.106933.041463-.2344956.1241096-.3791676.0889578-.144682.1969124-.294826.3239299-.4520846.1270282-.1572586.2620259-.3073919.4017515-.4520745l.3807291-.3770878c.190526-.1887039.3795013-.3820905.5700382-.5770878.0922965-.0974933.1816842-.1941759.2650306-.2916585.0887424-.1037867.1717007-.208704.2503085-.3125013.1524231-.2075839.2728817-.4132478.361796-.6208317.095312-.2138666.1430319-.4339732.1430319-.6604157 0-.5787091-.1744469-1.027157-.5237502-1.3416742-.3429599-.3207998-.8600868-.4812478-1.5523499-.4812478zm5.6898275 0c-.304846 0-.581066.051413-.828757.1520853-.247692.0943999-.4595203.2239572-.6373489.3874985-.1714746.1635519-.3043938.3548372-.3996515.5749971-.095312.2138666-.1430318.4401385-.1430318.6791677 0 .6856424.3115339 1.2039995.9339232 1.5562554-.035.02112-.07097.043733-.105112.066667-.1088275.0727463-.2140471.1548902-.315519.2458342-.1270281.1132266-.2412512.2407359-.3428629.3854078-.0953119.144672-.1741777.3030826-.2376865.4729172-.057187.1635519-.086265.3363412-.086265.5187518 0 .1887146.035325.3902932.1052192.6041699.069895.2075732.1882537.3988699.3533741.5749979.1651313.176128.3831846.324245.6562821.443754.279441.113227.626289.168747 1.0391.168747.355657 0 .669259-.04725.942345-.141664.273098-.08811.499486-.213547.677315-.377088.184183-.169835.32126-.365259.410162-.585419.09531-.226442.143043-.4712206.143043-.7354125-.01163-.696469-.332782-1.2208741-.961278-1.5749967h-.0021c-.05816-.032747-.117498-.064-.180899-.09376.127017-.081813.247476-.1764053.361796-.2833386.120673-.1069333.226594-.2303572.315508-.3687465.09531-.1383786.167953-.2864959.218764-.4437545.05718-.1635413.08626-.3363412.08626-.5187518 0-.1887146-.03941-.3841172-.115698-.5854078-.06993-.2012904-.186185-.382293-.351306-.5458343-.158776-.1698346-.366481-.3097385-.620515-.4166718-.254046-.106944-.559344-.160416-.915-.160416zm0 .7270824h.0021c.202254.000256.374041.035307.513249.1042133.139726.062933.253949.1451839.342864.2458345.08896.094293.153306.1971839.191409.3104106.04448.1132159.06527.2181439.06527.3125012 0 .3396692-.07894.6152957-.237697.829173-.158734.2075839-.370563.3906558-.637306.5479144-.241337-.0566399-.451108-.1327253-.628937-.2270825-.171474-.0942933-.310619-.2013226-.418584-.3208319-.107966-.11952-.188976-.2491199-.239787-.3875092-.05083-.1383893-.07571-.2761919-.07571-.4145812 0-.1132266.01863-.2263679.05676-.3395838.04448-.11952.110906-.2264746.199821-.3208319.08896-.1005866.203147-.1829333.342863-.2458346.145541-.06272.321484-.093547.523761-.09376zm-.370207 2.9062495c.254035.05664.478335.1265599.675215.2083306.203234.07552.375614.1701119.51534.2833385.146068.1132266.258234.2448639.334451.3958292.07625.1509759.113588.3257919.113588.5270824 0 .132096-.02487.2616959-.07571.3874986-.05084.125802-.127664.2389433-.229276.3395833-.101664.0944-.234519.1725223-.399651.2354243-.158777.06293-.347795.09579-.563728.09579-.241336 0-.440704-.03499-.599482-.104214-.158766-.06923-.289628-.1535279-.39124-.2541679-.101665-.1069333-.174296-.2221439-.218764-.3416633-.03813-.1258027-.05676-.2451093-.05676-.3583359 0-.3207999.07689-.5964158.229275-.8291623.158777-.2327359.380999-.4281599.666793-.5854185z" fill="#fff"/><path d="m4.1271982 0c-3.74357769 0-4.12696827.33051583-4.12696827 3.545832v.5333331c0-3.21531606.38339059-3.54583198 4.12696827-3.54583198h7.7449018c3.743578 0 4.14532.33055848 4.126968 3.54583198v-.5333331c.01835-3.21527351-.38339-3.545832-4.126968-3.545832z" fill="#fcfcfc" opacity=".3"/><path d="m.00022993 11.920828v.533333c0 3.215327.38337982 3.545833 4.12696827 3.545833h7.7449018c3.743578 0 4.145276-.330549 4.126968-3.545833v-.533333c.01831 3.215284-.38339 3.545832-4.126968 3.545832h-7.7449018c-3.74358844 0-4.12696826-.330505-4.12696827-3.545832z" opacity=".2"/></g><path d="m0 7.3984375v.6015625 4.455078c0 .803832.02460436 1.427106.11914062 1.910156.09453627.483051.25898442.826208.54101563 1.06836.28203121.242151.68165575.383709 1.24414065.464844.5624848.081134 1.2887122.101562 2.2246093.101562h7.7421878c.935894 0 1.662649-.020425 2.226562-.101562.563914-.081138.964872-.22269 1.248047-.464844s.449291-.585311.542969-1.06836c.093678-.483048.115905-1.106335.111328-1.910156v-4.455078-.6015625z" fill="#fff" opacity=".1"/></svg>

<?xml version="1.0" encoding="UTF-8" standalone="no"?>
<svg
   xmlns:dc="http://purl.org/dc/elements/1.1/"
   xmlns:cc="http://creativecommons.org/ns#"
   xmlns:rdf="http://www.w3.org/1999/02/22-rdf-syntax-ns#"
   xmlns:svg="http://www.w3.org/2000/svg"
   xmlns="http://www.w3.org/2000/svg"
   xmlns:sodipodi="http://sodipodi.sourceforge.net/DTD/sodipodi-0.dtd"
   xmlns:inkscape="http://www.inkscape.org/namespaces/inkscape"
   height="16"
   width="16"
   version="1.1"
   id="svg12"
   sodipodi:docname="x-office-calendar.svg"
   inkscape:version="0.92.4 (5da689c313, 2019-01-14)">
  <metadata
     id="metadata18">
    <rdf:RDF>
      <cc:Work
         rdf:about="">
        <dc:format>image/svg+xml</dc:format>
        <dc:type
           rdf:resource="http://purl.org/dc/dcmitype/StillImage" />
        <dc:title></dc:title>
      </cc:Work>
    </rdf:RDF>
  </metadata>
  <defs
     id="defs16" />
  <sodipodi:namedview
     pagecolor="#ffffff"
     bordercolor="#666666"
     borderopacity="1"
     objecttolerance="10"
     gridtolerance="10"
     guidetolerance="10"
     inkscape:pageopacity="0"
     inkscape:pageshadow="2"
     inkscape:window-width="1920"
     inkscape:window-height="1016"
     id="namedview14"
     showgrid="true"
     inkscape:zoom="52.4375"
     inkscape:cx="8"
     inkscape:cy="8"
     inkscape:window-x="0"
     inkscape:window-y="27"
     inkscape:window-maximized="1"
     inkscape:current-layer="svg12">
    <inkscape:grid
       type="xygrid"
       id="grid828" />
  </sodipodi:namedview>
  <path
     d="m 11.871388,6.45e-6 c 3.743577,0 4.146385,0.32958922 4.128033,3.54486265 V 8.0000033 12.455127 C 16.017731,15.670411 15.614965,16 11.871388,16 H 4.1280439 C 0.38445541,16 0,15.670453 0,12.455127 V 8.0000033 3.5448691 C 0,0.329553 0.38446618,6.45e-6 4.1280439,6.45e-6 Z"
     id="path2"
     inkscape:connector-curvature="0"
     style="fill:#2b898f;stroke-width:1.06666625" />
  <path
     d="M 0,6 V 9 H 1 V 6 Z m 15,0 v 3 h 1 V 6 Z"
     id="path4"
     inkscape:connector-curvature="0"
     style="fill:#ffffff;stroke-width:1.06666625"
     sodipodi:nodetypes="cccccccccc" />
  <path
     d="m 5.0842715,4.1208262 c -0.2286292,0 -0.4425685,0.0288 -0.6394487,0.08544 -0.1968911,0.05664 -0.373395,0.1265599 -0.5321721,0.2083305 -0.1587772,0.081813 -0.2958534,0.17024 -0.4101734,0.2645866 -0.1143199,0.088107 -0.199465,0.1621013 -0.2566195,0.2250026 l 0.4375175,0.6229117 c 0.044479,-0.03776 0.1067274,-0.0912 0.1893091,-0.1604159 0.082604,-0.07552 0.1843228,-0.1433493 0.3049969,-0.2062506 0.1206632,-0.069227 0.2577503,-0.1288426 0.4101733,-0.1791679 0.1524231,-0.050347 0.3206452,-0.07712 0.5048279,-0.07712 0.1524231,0 0.295735,0.022613 0.4291064,0.066667 0.139715,0.03776 0.2601736,0.1014399 0.3617962,0.1895785 0.1015583,0.088107 0.1805317,0.1970666 0.2376864,0.3291626 0.063541,0.1320959 0.096711,0.2925545 0.096711,0.4812585 0,0.1761279 -0.035325,0.3427411 -0.1052192,0.4999998 C 6.0492224,6.6280679 5.9599423,6.7823398 5.8456223,6.9333051 5.7376564,7.077977 5.6109621,7.2260943 5.4648932,7.3770596 5.4138447,7.4299662 5.3607503,7.4837475 5.3071392,7.5374755 5.2141974,7.6305955 5.1174639,7.7251447 5.0168644,7.8208034 4.8263276,8.0095073 4.6331953,8.2049419 4.436315,8.4062218 4.2394349,8.6075124 4.0608093,8.8193523 3.902032,9.0458056 3.7432549,9.2722588 3.6124036,9.5149894 3.5107918,9.7728874 3.4154798,10.024503 3.3677599,10.298082 3.3677599,10.593719 v 0.104214 c 0,0.03776 0.00431,0.07467 0.010769,0.112501 H 7.3792973 V 10.066679 H 4.3398078 c 0,-0.106933 0.041463,-0.2344956 0.1241096,-0.3791676 C 4.5528752,9.5428294 4.6608298,9.3926854 4.7878473,9.2354268 4.9148755,9.0781682 5.0498732,8.9280349 5.1895988,8.7833523 L 5.5703279,8.4062645 C 5.7608539,8.2175606 5.9498292,8.024174 6.1403661,7.8291767 6.2326626,7.7316834 6.3220503,7.6350008 6.4053967,7.5375182 6.4941391,7.4337315 6.5770974,7.3288142 6.6557052,7.2250169 6.8081283,7.017433 6.9285869,6.8117691 7.0175012,6.6041852 7.1128132,6.3903186 7.1605331,6.170212 7.1605331,5.9437695 7.1605331,5.3650604 6.9860862,4.9166125 6.6367829,4.6020953 6.293823,4.2812955 5.7766961,4.1208475 5.084433,4.1208475 Z m 5.6898275,0 c -0.304846,0 -0.581066,0.051413 -0.828757,0.1520853 C 9.69765,4.3673114 9.4858217,4.4968687 9.3079931,4.66041 9.1365185,4.8239619 9.0035993,5.0152472 8.9083416,5.2354071 8.8130296,5.4492737 8.7653098,5.6755456 8.7653098,5.9145748 c 0,0.6856424 0.3115339,1.2039995 0.9339232,1.5562554 -0.035,0.02112 -0.07097,0.043733 -0.105112,0.066667 C 9.4852935,7.6102435 9.3800739,7.6923874 9.278602,7.7833314 9.1515739,7.896558 9.0373508,8.0240673 8.9357391,8.1687392 8.8404272,8.3134112 8.7615614,8.4718218 8.6980526,8.6416564 c -0.057187,0.1635519 -0.086265,0.3363412 -0.086265,0.5187518 0,0.1887146 0.035325,0.3902932 0.1052192,0.6041699 0.069895,0.2075732 0.1882537,0.3988699 0.3533741,0.5749979 0.1651313,0.176128 0.3831846,0.324245 0.6562821,0.443754 0.279441,0.113227 0.626289,0.168747 1.0391,0.168747 0.355657,0 0.669259,-0.04725 0.942345,-0.141664 0.273098,-0.08811 0.499486,-0.213547 0.677315,-0.377088 0.184183,-0.169835 0.32126,-0.365259 0.410162,-0.585419 0.09531,-0.226442 0.143043,-0.4712206 0.143043,-0.7354125 -0.01163,-0.696469 -0.332782,-1.2208741 -0.961278,-1.5749967 h -0.0021 c -0.05816,-0.032747 -0.117498,-0.064 -0.180899,-0.09376 0.127017,-0.081813 0.247476,-0.1764053 0.361796,-0.2833386 0.120673,-0.1069333 0.226594,-0.2303572 0.315508,-0.3687465 0.09531,-0.1383786 0.167953,-0.2864959 0.218764,-0.4437545 0.05718,-0.1635413 0.08626,-0.3363412 0.08626,-0.5187518 0,-0.1887146 -0.03941,-0.3841172 -0.115698,-0.5854078 C 12.591051,5.0424472 12.474796,4.8614446 12.309675,4.6979033 12.150899,4.5280687 11.943194,4.3881648 11.68916,4.2812315 c -0.254046,-0.106944 -0.559344,-0.160416 -0.915,-0.160416 z m 0,0.7270824 h 0.0021 c 0.202254,2.56e-4 0.374041,0.035307 0.513249,0.1042133 0.139726,0.062933 0.253949,0.1451839 0.342864,0.2458345 0.08896,0.094293 0.153306,0.1971839 0.191409,0.3104106 0.04448,0.1132159 0.06527,0.2181439 0.06527,0.3125012 0,0.3396692 -0.07894,0.6152957 -0.237697,0.829173 C 11.49256,6.8576251 11.280731,7.040697 11.013988,7.1979556 10.772651,7.1413157 10.56288,7.0652303 10.385051,6.9708731 10.213577,6.8765798 10.074432,6.7695505 9.966467,6.6500412 9.858501,6.5305212 9.777491,6.4009213 9.72668,6.262532 9.67585,6.1241427 9.65097,5.9863401 9.65097,5.8479508 9.65097,5.7347242 9.6696,5.6215829 9.70773,5.508367 9.75221,5.388847 9.818636,5.2818924 9.907551,5.1875351 c 0.08896,-0.1005866 0.203147,-0.1829333 0.342863,-0.2458346 0.145541,-0.06272 0.321484,-0.093547 0.523761,-0.09376 z m -0.370207,2.9062495 c 0.254035,0.05664 0.478335,0.1265599 0.675215,0.2083306 0.203234,0.07552 0.375614,0.1701119 0.51534,0.2833385 0.146068,0.1132266 0.258234,0.2448639 0.334451,0.3958292 0.07625,0.1509759 0.113588,0.3257919 0.113588,0.5270824 0,0.132096 -0.02487,0.2616959 -0.07571,0.3874986 -0.05084,0.125802 -0.127664,0.2389433 -0.229276,0.3395833 -0.101664,0.0944 -0.234519,0.1725223 -0.399651,0.2354243 -0.158777,0.06293 -0.347795,0.09579 -0.563728,0.09579 -0.241336,0 -0.440704,-0.03499 -0.599482,-0.104214 C 10.015873,10.053591 9.885011,9.9692931 9.783399,9.8686531 9.681734,9.7617198 9.609103,9.6465092 9.564635,9.5269898 9.526505,9.4011871 9.507875,9.2818805 9.507875,9.1686539 c 0,-0.3207999 0.07689,-0.5964158 0.229275,-0.8291623 0.158777,-0.2327359 0.380999,-0.4281599 0.666793,-0.5854185 z"
     id="path6"
     inkscape:connector-curvature="0"
     style="fill:#ffffff;stroke-width:1.06666625" />
  <path
     d="M 4.1271982,0 C 0.38362051,0 2.2993e-4,0.33051583 2.2993e-4,3.545832 v 0.5333331 c 0,-3.21531606 0.38339059,-3.54583198 4.12696827,-3.54583198 H 11.8721 c 3.743578,0 4.14532,0.33055848 4.126968,3.54583198 V 3.545832 C 16.017418,0.33055849 15.615678,0 11.8721,0 Z"
     id="path8"
     inkscape:connector-curvature="0"
     style="opacity:0.3;fill:#fcfcfc;stroke-width:1.06666625" />
  <path
     d="m 2.2993e-4,11.920828 v 0.533333 c 0,3.215327 0.38337982,3.545833 4.12696827,3.545833 H 11.8721 c 3.743578,0 4.145276,-0.330549 4.126968,-3.545833 v -0.533333 c 0.01831,3.215284 -0.38339,3.545832 -4.126968,3.545832 H 4.1271982 c -3.74358844,0 -4.12696826,-0.330505 -4.12696827,-3.545832 z"
     id="path10"
     inkscape:connector-curvature="0"
     style="opacity:0.2;stroke-width:1.06666625" />
  <path
     style="opacity:0.1;fill:#ffffff;fill-opacity:1;stroke:none;stroke-width:0.2;stroke-linecap:round;stroke-linejoin:round;stroke-miterlimit:4;stroke-dasharray:none;stroke-opacity:1"
     d="M 0 7.3984375 L 0 8 L 0 12.455078 C 0 13.25891 0.02460436 13.882184 0.11914062 14.365234 C 0.21367689 14.848285 0.37812504 15.191442 0.66015625 15.433594 C 0.94218746 15.675745 1.341812 15.817303 1.9042969 15.898438 C 2.4667817 15.979572 3.1930091 16 4.1289062 16 L 11.871094 16 C 12.806988 16 13.533743 15.979575 14.097656 15.898438 C 14.66157 15.8173 15.062528 15.675748 15.345703 15.433594 C 15.628878 15.19144 15.794994 14.848283 15.888672 14.365234 C 15.98235 13.882186 16.004577 13.258899 16 12.455078 L 16 8 L 16 7.3984375 L 0 7.3984375 z "
     id="rect830" />
</svg>
